fs/document_pill_20_regular.svg

<svg viewBox="0 0 20 20" fill="none" xmlns="http://www.w3.org/2000/svg" height="1em" width="1em">
  <path d="M6 2C4.89543 2 4 2.89543 4 4V16C4 17.1046 4.89543 18 6 18H9.20275C9.05713 17.6797 8.96058 17.3426 8.91311 17H6C5.44772 17 5 16.5523 5 16V4C5 3.44772 5.44772 3 6 3H10V6.5C10 7.32843 10.6716 8 11.5 8H15V9.20309C15.3203 9.05745 15.6574 8.96088 16 8.91338V7.41421C16 7.01639 15.842 6.63486 15.5607 6.35355L11.6464 2.43934C11.3651 2.15804 10.9836 2 10.5858 2H6ZM14.7929 7H11.5C11.2239 7 11 6.77614 11 6.5V3.20711L14.7929 7ZM18.3535 10.6467C17.3298 9.62298 15.6701 9.62298 14.6464 10.6467L10.6464 14.6467C9.62274 15.6704 9.62274 17.3301 10.6464 18.3538C11.6701 19.3775 13.3298 19.3775 14.3535 18.3538L18.3535 14.3538C19.3772 13.3301 19.3772 11.6704 18.3535 10.6467ZM15.3535 11.3538C15.9867 10.7206 17.0133 10.7206 17.6464 11.3538C18.2796 11.9869 18.2796 13.0135 17.6464 13.6467L16 15.2931L13.7071 13.0002L15.3535 11.3538ZM13.1464 15.6464C13.3417 15.4512 13.6583 15.4512 13.8536 15.6464C14.0488 15.8417 14.0488 16.1583 13.8536 16.3536L12.8536 17.3536C12.6583 17.5488 12.3417 17.5488 12.1464 17.3536C11.9512 17.1583 11.9512 16.8417 12.1464 16.6464L13.1464 15.6464Z" fill="#212121"/>
</svg>

<svg viewBox="0 0 20 20" fill="none" xmlns="http://www.w3.org/2000/svg" height="1em" width="1em">
  <path d="M6 2a2 2 0 0 0-2 2v12a2 2 0 0 0 2 2h3.203a3.615 3.615 0 0 1-.29-1H6a1 1 0 0 1-1-1V4a1 1 0 0 1 1-1h4v3.5A1.5 1.5 0 0 0 11.5 8H15v1.203c.32-.146.657-.242 1-.29V7.414a1.5 1.5 0 0 0-.44-1.06l-3.914-3.915A1.5 1.5 0 0 0 10.586 2H6Zm8.793 5H11.5a.5.5 0 0 1-.5-.5V3.207L14.793 7Zm3.56 3.647a2.621 2.621 0 0 0-3.707 0l-4 4a2.621 2.621 0 0 0 3.707 3.707l4-4a2.621 2.621 0 0 0 0-3.707Zm-3 .707a1.621 1.621 0 1 1 2.293 2.293L16 15.293 13.707 13l1.646-1.646Zm-2.207 4.292a.5.5 0 0 1 .708.708l-1 1a.5.5 0 0 1-.708-.708l1-1Z" fill="#212121"/>
</svg>
